X:1
T:Naomi, CM
T:Naomi, CM
T:Hans Nägeli (1773–1836), arr. Lowell Mason
T:Arranged by Lowell Mason, 1836 Public Domain, Courtesy of the Cyber Hymnal™
C:Hans Nägeli (1773–1836), arr. Lowell Mason
Z:Arranged by Lowell Mason, 1836
Z:Public Domain, Courtesy of the Cyber Hymnal™
%%score ( 1 2 ) ( 3 4 )
L:1/8
Q:1/4=150
M:4/4
K:D
V:1 treble 
V:2 treble 
V:3 bass 
V:4 bass 
V:1
 [DF]4 [DF]2 [DF]2 | [FA]4 ([EG]2 [DF]2) | ([CE]2 [DF]2) [EG]4 | [DF]4 [DF]4 | [FB]6 [FB]2 | %5
 [EA]4 [D^G]4 | [CA]8 | [DF]4 [DF]2 [DF]2 | [FA]4 ([EG]2 [DF]2) | ([CE]2 [DF]2) [EG]4 | %10
 [DF]4 [DF]4 | [DB]6 [DB]2 | (A2 F2) [CE]4 | [DF]6 z2 |] %14
V:2
 x8 | x8 | x8 | x8 | x8 | x8 | x8 | x8 | x8 | x8 | x8 | x8 | D4 x4 | x8 |] %14
V:3
 [D,A,]4 [D,A,]2 [D,A,]2 | [D,A,]4 [D,A,]4 | A,4 [A,,A,]4 | [D,A,]4 [D,A,]4 | [B,,D]6 [B,,D]2 | %5
 [E,C]4 [E,B,]4 | [A,,A,]8 | [D,A,]4 [D,A,]2 [D,A,]2 | [D,A,]4 [D,A,]4 | A,4 [A,,A,]4 | %10
 [D,A,]4 [D,A,]4 | [G,,G,]6 [G,,G,]2 | (F,2 A,2) [A,,A,]4 | [D,A,]6 z2 |] %14
V:4
 x8 | x8 | A,4 x4 | x8 | x8 | x8 | x8 | x8 | x8 | A,4 x4 | x8 | x8 | A,,4 x4 | x8 |] %14

